X:1
T:Ecce enim veritatem
T:Francisco Valls (1665-1747)
T:Ecce enim veritatem
T:Fuga in unisonus a 3, rigorosa
C:Francisco Valls (1665-1747)
%%score [ 1 2 3 ] 4
L:1/8
Q:1/4=50
M:4/4
K:C
V:1 alto nm="Guía" snm="A."
V:2 alto nm="eco" snm="A."
V:3 alto nm="mas eco" snm="A."
V:4 bass nm="Aco.to (Continuo)." snm="Org."
V:1
"^Psalm 51 verse 6From \"Mapa Armónico Práctico\" (1742)  folio 122 recto to 122 verso""^Largo" x8 | %1
w: |
[M:4/4][K:treble] G3 G GE/F/ G/A/G/F/ | EC/D/ E/F/E/D/ CC z2 | z2 G/A/G/F/ E/D/E/F/ G2 | z4 C3 C | %5
w: Ec- ce e- nim _ ve- * * *|ri- * * * * * * ta- tem|di- * lex- * is- * * * ti|Ec- ce|
 C/G,/A,/B,/ C/B,/C/D/ E/D/C/D/ E/F/E/F/ | GG z2 z2 G/A/G/F/ | E/D/E/F/ D2 z4 | %8
w: e- * nim _ ve- * * * * * * * * * * *|ta- tem di- * lex- *|is- * * * ti,|
 C2 ^G,2 A,/B,/C/D/ B,>A, | A,2 z2 z4 | z8 | z2 z G AG/F/ GF/E/ | FE/D/ E2 z2 z _B/B/ | %13
w: di- lex- is- * * * * *|ti||in- cer- ta _ et- oc- *|cul- * * ta sa- pi-|
 AA/A/ G/F/G/A/ F2 z2 | z AAA AD/E/ ^C2 | D2 z2 z4 | z2 z D ED/C/ DC/B,/ | CB,/A,/ B,2 z2 z F/F/ | %18
w: en- ti- a tu- * * * a|ma- ni- fes- tas- ti _ mi-|hi|in- cer- ta _ et oc- *|cul- * * ta sa- pi-|
 EE/E/ D/C/D/E/ C2 z2 | z EEE EA,/B,/ ^G,2 | A,2 z2 z CEB, | C/D/E/F/ G/A/G/F/ E2- E/F/D/E/ | %22
w: en- ti- a tu- * * * a|ma- ni- fes- tas- ti _ mi-|hi ma- ni- fes-|tas- * ti _ mi- * * * * * * * *|
 C2 z2 z4 | z8 |] %24
w: hi.||
V:2
 x8 |[M:4/4][K:treble] z4 G3 G | GE/F/ G/A/G/F/ EC/D/ E/F/E/D/ | CC z2 z2 G/A/G/F/ | %4
w: |Ec- ce|e- nim _ ve- * * * ri- * * * * * *|ta- tem di- * lex- *|
 E/D/E/F/ G2 z4 | C3 C C/G,/A,/B,/ C/B,/C/D/ | E/D/C/D/ E/F/E/F/ GG z2 | z2 G/A/G/F/ E/D/E/F/ D2 | %8
w: is- * * * ti|Ec- ce e- * nim _ ve- * * *|* * * * * * * * ta- tem|di- * lex- * is- * * * ti,|
 z4 C2 ^G,2 | A,/B,/C/D/ B,>A, A,2 z2 | z4 z4 | z4 z2 z G | AG/F/ GF/E/ FE/D/ E2 | %13
w: di- lex-|is- * * * * * ti||in-|cer- ta _ et- oc- * cul- * * ta|
 z2 z _B/B/ AA/A/ G/F/G/A/ | F2 z2 z AAA | AD/E/ ^C2 D2 z2 | z4 z2 z D | ED/C/ DC/B,/ CB,/A,/ B,2 | %18
w: sa- pi- en- ti- a tu- * * *|a ma- ni- fes-|tas- ti _ mi- hi|in-|cer- ta _ et oc- * cul- * * ta|
 z2 z F/F/ EE/E/ D/C/D/E/ | C2 z2 z EEE | EA,/B,/ ^G,2 A,2 z2 | z CEB, C/D/E/F/ G/A/G/F/ | %22
w: sa- pi- en- ti- a tu- * * *|a ma- ni- fes-|tas- ti _ mi- hi|ma- ni- fes- tas- * ti _ mi- * * *|
 E2- E/F/D/E/ C2 z2 | z4 z4 |] %24
w: * * * * * hi.||
V:3
 x8 |[M:4/4][K:treble] z8 | G3 G GE/F/ G/A/G/F/ | EC/D/ E/F/E/D/ CC z2 | z2 G/A/G/F/ E/D/E/F/ G2 | %5
w: ||Ec- ce e- nim _ ve- * * *|ri- * * * * * * ta- tem|di- * lex- * is- * * * ti|
 z4 C3 C | C/G,/A,/B,/ C/B,/C/D/ E/D/C/D/ E/F/E/F/ | GG z2 z2 G/A/G/F/ | E/D/E/F/ D2 z4 | %9
w: Ec- ce|e- * nim _ ve- * * * * * * * * * * *|ta- tem di- * lex- *|is- * * * ti,|
 C2 ^G,2 A,/B,/C/D/ B,>A, | A,2 z2 z4 | z8 | z2 z G AG/F/ GF/E/ | FE/D/ E2 z2 z _B/B/ | %14
w: di- lex- is- * * * * *|ti||in- cer- ta _ et- oc- *|cul- * * ta sa- pi-|
 AA/A/ G/F/G/A/ F2 z2 | z AAA AD/E/ ^C2 | D2 z2 z4 | z2 z D ED/C/ DC/B,/ | CB,/A,/ B,2 z2 z F/F/ | %19
w: en- ti- a tu- * * * a|ma- ni- fes- tas- ti _ mi-|hi|in- cer- ta _ et oc- *|cul- * * ta sa- pi-|
 EE/E/ D/C/D/E/ C2 z2 | z EEE EA,/B,/ ^G,2 | A,2 z2 z CEB, | C/D/E/F/ G/A/G/F/ E2- E/F/D/E/ | %23
w: en- ti- a tu- * * * a|ma- ni- fes- tas- ti _ mi-|hi ma- ni- fes-|tas- * ti _ mi- * * * * * * * *|
 C2 z2 z4 |] %24
w: hi.|
V:4
 x8 |[M:4/4] C,2 z C,/D,/"^6" !wedge!E,2"^6" !wedge!B,,2 | C,2 z2 z4 | %3
 C,2 z2 !wedge!C,2"^6" !wedge!B,,2 | !wedge!C,2 !wedge!G,,2 C,2 z E,/D,/ | C,2 z2 z4 | z4 C,2 z2 | %7
 !wedge!C,2"^6" !wedge!B,,2 !wedge!C,2 !wedge!G,,2 | !wedge!C,2 !wedge!B,,2 !wedge!A,,2 E,,2 | %9
 !wedge!A,,2 !wedge!E,2 !wedge!A,,2 !wedge!E,,2 | A,,/>B,,/C,/>D,/ E,2 E,,2 z A,,/>B,,/ | %11
 C,C,C,C,"^46" C,2"^35" C,2 |"^64" C,2"^3" C,2 z4 | F,2 C,2 F,,2 C,2 | z F, ^C,>C, D,2 A,,2 | %15
 z"^6" F,,G,,A,, z"^6" F,,G,,A,, | D,,2 z G,,"^64" G,,G,,"^3"G,,G,, |"^64" G,,2"^3" G,,2 z4 | %18
 C,2 G,,2 C,,2 G,,2 | z C, G,,>G,, A,,/>B,,/C,/>D,/ E,E,/>D,/ | %20
"^6" C,/>B,,/C,/>D,/ E,E,, A,,2 E,,2 | z A,,"^46"G,,"^35"G,, C,2 G,,2 | %22
 z C,"^6"E,"^6"B,, C,/>D,/E,/>F,/"^54" G,"^3"G,, | C,C,C,C, C,,4 |] %24

